d1 $ every 2 (|+| speed "0.6") $ every 4 rev $ sound "bd/2 [ht ht] drum*2" # gain "1.5 1 1.3" # vowel "o"

d2 $ sound "pad:4" # speed 0.5 # vowel "o" # gain "0.65"

d3 $ slow 4 $ sound "arpy ~ arpy:2 arpy:1 ~" # speed 0.25 # vowel "a"

d4 $ sound "[arpy arpy:1 arpy] arpy:2" # speed 1.5

hush
